assets/images/script/p-7-e3.svg

<svg fill="none" height="242" viewBox="0 0 251 242" width="251" xmlns="http://www.w3.org/2000/svg"><path d="m120.517 3.92059c.872-.12258-29.0531.33195-30.6948-.02449-28.0283-.83861-44.8092 2.08731-74.4166.61334-1.1396-.05673-18.79298-1.84914-9.92126-1.45208 17.29146.77388 35.94616 11.31474 44.77966 23.80584 13.132 18.5696 22.0017 36.3765 29.8308 57.5072 9.6049 25.9236 18.1959 52.6416 22.7252 79.9306 2.349 14.153 14.146 69.765-11.2622 73.396-24.1903 3.458-34.4554-38.137-34.8584-54.255-.8638-34.55 14.9397-62.994 43.0368-82.901 5.5248-3.9139 30.4108-13.198 34.9928.496 7.211 21.555-.227 36.473-1.609 58.248-1.526 24.036-1.283 54.437 17.027 73.132 14.931 15.246 36.147 1.09 45.316-12.937 8.443-12.916 9.271-28.35 7.776-43.232-1.869-18.609-5.601-38.901-13.541-56.037-2.879-6.214-12.351-15.038-13.072-21.7818-.268-2.501 10.051.4302 10.793.6601 17.929 5.5577 35.724 7.6167 54.566 7.7887 1.773.016 9.642 1.188 4.022 1.188" stroke="#000" stroke-linecap="round" stroke-width="5"/></svg>

<svg width="251" height="242" viewBox="0 0 251 242" fill="none" xmlns="http://www.w3.org/2000/svg">
<path d="M120.517 3.92059C121.389 3.79801 91.4639 4.25254 89.8222 3.8961C61.7939 3.05749 45.013 5.98341 15.4056 4.50944C14.266 4.45271 -3.38738 2.6603 5.48434 3.05736C22.7758 3.83124 41.4305 14.3721 50.264 26.8632C63.396 45.4328 72.2657 63.2397 80.0948 84.3704C89.6997 110.294 98.2907 137.012 102.82 164.301C105.169 178.454 116.966 234.066 91.5578 237.697C67.3675 241.155 57.1024 199.56 56.6994 183.442C55.8356 148.892 71.6391 120.448 99.7362 100.541C105.261 96.6271 130.147 87.343 134.729 101.037C141.94 122.592 134.502 137.51 133.12 159.285C131.594 183.321 131.837 213.722 150.147 232.417C165.078 247.663 186.294 233.507 195.463 219.48C203.906 206.564 204.734 191.13 203.239 176.248C201.37 157.639 197.638 137.347 189.698 120.211C186.819 113.997 177.347 105.173 176.626 98.4292C176.358 95.9282 186.677 98.8594 187.419 99.0893C205.348 104.647 223.143 106.706 241.985 106.878C243.758 106.894 251.627 108.066 246.007 108.066" stroke="black" stroke-width="5" stroke-linecap="round"/>
</svg>
